usr/share/icons/biglinux-icons-material-dark/22/actions/exchange-positions.svg

<svg xmlns="http://www.w3.org/2000/svg" viewBox="0 0 22 22">
<defs id="defs3051">
<style id="current-color-scheme" type="text/css">
.ColorScheme-Text{color:#dedede}
</style>
</defs>
<path d="M3 3v7h8V3zm1 1h6v5H4zm8 .078V8h1V5.355A6 6 0 0 1 17 11h1a7 7 0 0 0-6-6.922M4 11a7 7 0 0 0 6 6.922V14H9v2.645A6 6 0 0 1 5 11zm7 1v7h8v-7zm1 1h6v5h-6z" class="ColorScheme-Text" style="fill:currentColor;fill-opacity:1;stroke:none"/>
</svg>

<svg xmlns="http://www.w3.org/2000/svg" viewBox="0 0 22 22">
  <defs id="defs3051">
    <style type="text/css" id="current-color-scheme">
      .ColorScheme-Text {
        color:#dedede;
      }
      </style>
  </defs>
 <path 
    style="fill:currentColor;fill-opacity:1;stroke:none" 
    d="M 3 3 L 3 10 L 11 10 L 11 3 L 3 3 z M 4 4 L 10 4 L 10 9 L 4 9 L 4 4 z M 12 4.078125 L 12 5.0898438 L 12 8 L 13 8 L 13 5.3554688 A 6 6 0 0 1 17 11 L 18 11 A 7 7 0 0 0 12 4.078125 z M 4 11 A 7 7 0 0 0 10 17.921875 L 10 16.910156 L 10 14 L 9 14 L 9 16.644531 A 6 6 0 0 1 5 11 L 4 11 z M 11 12 L 11 19 L 19 19 L 19 12 L 11 12 z M 12 13 L 18 13 L 18 18 L 12 18 L 12 13 z "
    class="ColorScheme-Text"
    />  
</svg>
